Adwaita++/actions/symbolic/media-skip-forward-symbolic.svg

<svg height="16" width="16.002" xmlns="http://www.w3.org/2000/svg">
  <g fill="#474747">
    <path d="m8.04 4a1 1 0 0 0 -1.04 1v6a1 1 0 0 0 1.514.857l5-3a1 1 0 0 0 0-1.714l-5-3a1 1 0 0 0 -.474-.143zm.96 2.768 2.055 1.232-2.055 1.232z"/>
    <path d="m14.002 3.998-.002 1-.013 6-.004 1 2 .004.004-1 .013-6 .002-1z"/>
    <path d="m8 11h-1v1h1zm0-7h-1v1h1z"/>
    <path d="m1.04 4a1 1 0 0 0 -1.04 1v6a1 1 0 0 0 1.514.857l5-3a1 1 0 0 0 0-1.714l-5-3a1 1 0 0 0 -.474-.143zm.96 2.768 2.055 1.232-2.055 1.232z"/>
    <path d="m1 11h-1v1h1zm0-7h-1v1h1zm7 1 5 3-5 3zm-7 0 5 3-5 3z"/>
  </g>
</svg>

<svg xmlns="http://www.w3.org/2000/svg" width="16.002" height="16">
    <g color="#000" fill="#474747">
        <path d="M8.04 4A1 1 0 0 0 7 5v6a1 1 0 0 0 1.514.857l5-3a1 1 0 0 0 0-1.714l-5-3A1 1 0 0 0 8.04 4zM9 6.768L11.055 8 9 9.232z" style="line-height:normal;font-variant-ligatures:normal;font-variant-position:normal;font-variant-caps:normal;font-variant-numeric:normal;font-variant-alternates:normal;font-feature-settings:normal;text-indent:0;text-align:start;text-decoration-line:none;text-decoration-style:solid;text-decoration-color:#000;text-transform:none;text-orientation:mixed;shape-padding:0;isolation:auto;mix-blend-mode:normal;marker:none" font-weight="400" font-family="sans-serif" white-space="normal" overflow="visible"/>
        <path d="M14.002 3.998l-.002 1-.013 6-.004 1 2 .004.004-1 .013-6 .002-1z" style="line-height:normal;font-variant-ligatures:normal;font-variant-position:normal;font-variant-caps:normal;font-variant-numeric:normal;font-variant-alternates:normal;font-feature-settings:normal;text-indent:0;text-align:start;text-decoration-line:none;text-decoration-style:solid;text-decoration-color:#000;text-transform:none;text-orientation:mixed;shape-padding:0;isolation:auto;mix-blend-mode:normal;marker:none" font-weight="400" font-family="sans-serif" white-space="normal" overflow="visible"/>
        <path d="M8 11H7v1h1zM8 4H7v1h1z" style="marker:none" overflow="visible"/>
        <path d="M1.04 4A1 1 0 0 0 0 5v6a1 1 0 0 0 1.514.857l5-3a1 1 0 0 0 0-1.714l-5-3A1 1 0 0 0 1.04 4zM2 6.768L4.055 8 2 9.232z" style="line-height:normal;font-variant-ligatures:normal;font-variant-position:normal;font-variant-caps:normal;font-variant-numeric:normal;font-variant-alternates:normal;font-feature-settings:normal;text-indent:0;text-align:start;text-decoration-line:none;text-decoration-style:solid;text-decoration-color:#000;text-transform:none;text-orientation:mixed;shape-padding:0;isolation:auto;mix-blend-mode:normal;marker:none" font-weight="400" font-family="sans-serif" white-space="normal" overflow="visible"/>
        <path d="M1 11H0v1h1zM1 4H0v1h1zM8 5l5 3-5 3zM1 5l5 3-5 3z" style="marker:none" overflow="visible"/>
    </g>
</svg>
